X:1
T:Title
L:1/8
M:4/4
K:Bb
V:1 treble nm="Grand Piano"
V:1
 z4[Q:1/4=100] DDBA | AGG^F FEED | ED C2- CC E2 | D3 D- D E2 ^F | G4 ^FGAA | A2 A2 ^FG A2 | %6
 A2 A2 ABcB | BAAG G^FBA | G4 Bc d2 | d2 cB cdcB | A4 E^F G2 | G2 B2 AG^FE | D4 CD E2 | %13
 E2 DE ^F2 EF | G2 G2 ^FG A2 | AABA AGG^F | G4 ^FG A2 | A2 A2 BABc | BAG^F EF G2 | G2 G2 AG^FG | %20
 A4 ^FG A2 | A2 A2 BABc | BAG^F EF G2 | G3 B AG^FE | D4 z4 |] %25

